packages/react/src/components/base/Icon/assets/icon-lg-scales.svg

<svg width="24" height="24" viewBox="0 0 24 24" xmlns="http://www.w3.org/2000/svg" fill="currentColor"> <path d="M23.2944 12.3319L20.2944 4.83188C20.1952 4.58444 20.0113 4.38028 19.7755 4.2558C19.5398 4.13132 19.2675 4.0946 19.0072 4.15219L13.625 5.34375V3.75C13.625 3.45163 13.5065 3.16548 13.2955 2.9545C13.0845 2.74353 12.7984 2.625 12.5 2.625C12.2017 2.625 11.9155 2.74353 11.7045 2.9545C11.4936 3.16548 11.375 3.45163 11.375 3.75V5.84719L5.50627 7.15219C5.3276 7.19181 5.1613 7.27443 5.02178 7.39287C4.88226 7.51131 4.77375 7.66201 4.70565 7.83187L1.70565 15.3244C1.65145 15.4597 1.62407 15.6042 1.62502 15.75C1.62502 16.8872 2.20627 17.8528 3.26096 18.4688C4.02183 18.8944 4.8782 19.1202 5.75002 19.125C6.62185 19.1202 7.47822 18.8944 8.23909 18.4688C9.29377 17.8528 9.87502 16.8872 9.87502 15.75C9.87501 15.6068 9.84765 15.4648 9.7944 15.3319L7.28565 9.06094L11.375 8.15625V19.125H10.25C9.95166 19.125 9.66551 19.2435 9.45453 19.4545C9.24355 19.6655 9.12502 19.9516 9.12502 20.25C9.12502 20.5484 9.24355 20.8345 9.45453 21.0455C9.66551 21.2565 9.95166 21.375 10.25 21.375H14.75C15.0484 21.375 15.3345 21.2565 15.5455 21.0455C15.7565 20.8345 15.875 20.5484 15.875 20.25C15.875 19.9516 15.7565 19.6655 15.5455 19.4545C15.3345 19.2435 15.0484 19.125 14.75 19.125H13.625V7.65281L17.4144 6.80906L15.2056 12.3309C15.1523 12.4642 15.1249 12.6064 15.125 12.75C15.125 13.8872 15.7063 14.8528 16.761 15.4688C17.5198 15.8995 18.3774 16.126 19.25 16.126C20.1226 16.126 20.9803 15.8995 21.7391 15.4688C22.7938 14.8528 23.375 13.8872 23.375 12.75C23.375 12.6068 23.3476 12.4648 23.2944 12.3319ZM5.75002 16.875C5.40221 16.875 4.06252 16.6997 3.89284 15.9206L5.75002 11.2791L7.60721 15.9206C7.43752 16.6997 6.09784 16.875 5.75002 16.875ZM19.25 13.875C18.9022 13.875 17.5625 13.6997 17.3928 12.9206L19.25 8.27906L21.1072 12.9206C20.9375 13.6997 19.5978 13.875 19.25 13.875Z"/> </svg>

<svg viewBox="0 0 24 24" xmlns="http://www.w3.org/2000/svg" aria-hidden="true" fill="currentColor"><path d="m23.294 12.332-3-7.5a1.125 1.125 0 0 0-1.287-.68l-5.382 1.192V3.75a1.125 1.125 0 1 0-2.25 0v2.097L5.506 7.152a1.13 1.13 0 0 0-.8.68l-3 7.492q-.083.206-.081.426c0 1.137.581 2.103 1.636 2.719.76.425 1.617.651 2.489.656a5.16 5.16 0 0 0 2.49-.656c1.054-.616 1.635-1.582 1.635-2.719 0-.143-.027-.285-.08-.418L7.284 9.06l4.09-.905v10.969H10.25a1.125 1.125 0 1 0 0 2.25h4.5a1.125 1.125 0 1 0 0-2.25h-1.125V7.653l3.79-.844-2.21 5.522q-.08.201-.08.419c0 1.137.581 2.103 1.636 2.719a5.04 5.04 0 0 0 4.978 0c1.055-.616 1.636-1.582 1.636-2.719 0-.143-.027-.285-.08-.418M5.75 16.875c-.348 0-1.687-.175-1.857-.954l1.857-4.642 1.857 4.642c-.17.779-1.51.954-1.857.954m13.5-3c-.348 0-1.687-.175-1.857-.954l1.857-4.642 1.857 4.642c-.17.779-1.51.954-1.857.954"/></svg>
